packages/web/src/assets/images/icons/close.svg

<svg fill="none" height="20" viewBox="0 0 20 20" width="20" xmlns="http://www.w3.org/2000/svg"><rect fill="#606266" height="20" rx="4" width="20"/><path d="m13.9375 5.35993-3.93754 3.9375-3.9375-3.9375c-.10434-.09366-.2215-.1405-.3515-.1405s-.24467.0495-.344.1485c-.09934.099-.14884.21367-.1485.344.00033.13034.04716.2475.1405.3515l3.9375 3.93747-3.9375 3.9375c-.13534.1354-.17967.2969-.133.4845.04666.1877.16133.3049.344.3515.18266.0467.34666.0024.492-.133l3.9375-3.9375 3.93754 3.9375c.1043.0937.2215.1405.3515.1405s.2446-.0495.344-.1485c.0993-.099.1488-.2136.1485-.344-.0004-.1303-.0472-.2475-.1405-.3515l-3.9375-3.9375 3.9375-3.93747c.1353-.13533.1796-.29683.133-.4845-.0467-.18766-.1639-.30483-.3515-.3515-.1877-.04666-.3492-.00233-.4845.133z" fill="#fefffc"/></svg>

<svg width="20" height="20" viewBox="0 0 20 20" fill="none" xmlns="http://www.w3.org/2000/svg">
    <rect width="20" height="20" rx="4" fill="#606266"/>
    <path d="M13.9375 5.35993L9.99996 9.29743L6.06246 5.35993C5.95812 5.26627 5.84096 5.21943 5.71096 5.21943C5.58096 5.21943 5.46629 5.26893 5.36696 5.36793C5.26762 5.46693 5.21812 5.5816 5.21846 5.71193C5.21879 5.84227 5.26562 5.95943 5.35896 6.06343L9.29646 10.0009L5.35896 13.9384C5.22362 14.0738 5.17929 14.2353 5.22596 14.4229C5.27262 14.6106 5.38729 14.7278 5.56996 14.7744C5.75262 14.8211 5.91662 14.7768 6.06196 14.6414L9.99946 10.7039L13.937 14.6414C14.0413 14.7351 14.1585 14.7819 14.2885 14.7819C14.4185 14.7819 14.5331 14.7324 14.6325 14.6334C14.7318 14.5344 14.7813 14.4198 14.781 14.2894C14.7806 14.1591 14.7338 14.0419 14.6405 13.9379L10.703 10.0004L14.6405 6.06293C14.7758 5.9276 14.8201 5.7661 14.7735 5.57843C14.7268 5.39077 14.6096 5.2736 14.422 5.22693C14.2343 5.18027 14.0728 5.2246 13.9375 5.35993Z" fill="#FEFFFC"/>
</svg>
